packages/icons/svg/Fill/thermometer-minus.svg

<svg fill="none" height="24" viewBox="0 0 24 24" width="24" xmlns="http://www.w3.org/2000/svg"><path clip-rule="evenodd" d="m15 5.00007v4.54h-2v-4.54c0-.551.448-1 1-1 .267 0 .514.102.713.306.184.181.287.427.287.694zm-6 11.99993c0 2.757 2.243 5 5 5s5-2.243 5-5c0-1.58-.754-3.063-2-3.997v-8.003c0-.811-.316-1.566-.873-2.108-.561-.575-1.315-.892-2.127-.892-1.654 0-3 1.346-3 3v8.003c-1.246.934-2 2.417-2 3.997zm-5.99998-10h4c.55 0 1-.45 1-1s-.45-1-1-1h-4c-.55 0-1 .45-1 1s.45 1 1 1z" fill="#6b7280" fill-rule="evenodd"/></svg>

<svg width="24" height="24" viewBox="0 0 24 24" fill="none" xmlns="http://www.w3.org/2000/svg">
<g id="Icon/Fill/thermometer-minus">
<path id="Mask" fill-rule="evenodd" clip-rule="evenodd" d="M15 5V9.54H13V5C13 4.449 13.448 4 14 4C14.267 4 14.514 4.102 14.713 4.306C14.897 4.487 15 4.733 15 5ZM9 17C9 19.757 11.243 22 14 22C16.757 22 19 19.757 19 17C19 15.42 18.246 13.937 17 13.003V5C17 4.189 16.684 3.434 16.127 2.892C15.566 2.317 14.812 2 14 2C12.346 2 11 3.346 11 5V13.003C9.754 13.937 9 15.42 9 17ZM3 7H7C7.55 7 8 6.55 8 6C8 5.45 7.55 5 7 5H3C2.45 5 2 5.45 2 6C2 6.55 2.45 7 3 7Z" fill="#000000"/>
</g>
</svg>
